launcher/android/assets/skins/day/svg/db_filter_active.svg

<svg enable-background="new 0 0 88.00 76.00" height="76" viewBox="0 0 88 76" width="88" xmlns="http://www.w3.org/2000/svg" xmlns:xlink="http://www.w3.org/1999/xlink"><linearGradient id="a" gradientTransform="matrix(0 1 -1 0 .228961 -.778777)" gradientUnits="objectBoundingBox" x1=".503869" x2="2.05368" y1="-.274908" y2="-.274908"><stop offset=".316279" stop-color="#f0f1ec" stop-opacity=".592157"/><stop offset=".800003" stop-color="#fff" stop-opacity="0"/></linearGradient><linearGradient id="b" gradientTransform="matrix(-.986419426397 .164245898658 -.164245898658 -.986419426397 1.939424360163 .714189860202)" gradientUnits="objectBoundingBox" x1=".940186" x2="2.52462" y1=".437275" y2=".437275"><stop offset=".274419" stop-color="#f0f1ec" stop-opacity=".501961"/><stop offset=".562791" stop-color="#fff" stop-opacity="0"/></linearGradient><radialGradient id="c" cx="42.9268" cy="62.8574" gradientUnits="userSpaceOnUse" r="22.2178"><stop offset="0" stop-opacity=".207843"/><stop offset="1" stop-color="#111" stop-opacity=".0980392"/></radialGradient><g stroke-linejoin="round"><path d="m13.4792 2.43747h61c6.0751 0 11 4.92487 11 11.00003v49.6667c0 6.0751-4.9249 11-11 11h-61c-6.07517 0-11.00004-4.9249-11.00004-11v-49.6667c0-6.07516 4.92487-11.00003 11.00004-11.00003z" fill="#c0533d" stroke="#000"/><path d="m73.499 4.92154h-58.1111c-3.034 0-6.8082.84714-9.5754 4.64534h.06589c.06588 35.59882 18.16601 35.71982 38.54311 35.71982 20.377 0 37.6866-.3444 38.016-35.80359v.02792c-1.4495-2.06667-3.3602-4.18919-8.9385-4.58949z" fill="url(#a)" stroke-width=".2"/><path d="m73.2684 4.87499-16.9875 1.86187c-3.0339 0-19.1508-1.78743-21.918 2.01077l-8.0819 11.91597c4.3585 7.0054 19.6778-2.0853 22.0497-3.8354 23.631-3.0163 33.5468 28.0675 33.8762-7.39164v.02792c-1.4495-2.06666-3.3602-4.18918-8.9385-4.58949z" fill="url(#b)" stroke-width=".2"/><path d="m21.9828 15.1185 37.625 2.8704v4.75l-37.625-2.8704z" fill="#757576" stroke="#757576"/><path d="m24.4438 56.9413 40.2008 8.1939-3.2347 3.6383-40.2009-8.194z" fill="url(#c)" stroke-width=".2"/><path d="m22.4203 28.7458 37.3089 4.0667-.1667 5-37.1422-4.3167z" fill="#deb73a" stroke="#deb73a"/><path d="m22.7328 40.5583 37.125 5.3708v4.75l-37.125-5.3708z" fill="#757576" stroke="#757576"/><path d="m23.1703 52.4958 36.625 6.4329v4.75l-36.625-6.4329z" fill="#757576" stroke="#757576"/><path d="m59.6458 32.8958 3.1667-1.5833v4.9166l-3.0882 1.4879z" fill="#e7c456" stroke="#e7c456"/><path d="m60.0141 45.9624 3.0937-1.625v4.625l-3.0937 1.625z" fill="#92929a" stroke="#92929a"/><path d="m59.7641 58.9624 2.8437-2.1244v4.625l-2.8437 2.1244z" fill="#92929a" stroke="#92929a"/><path d="m25.5583 27.3994 37.1527 3.5958-3.6068 1.8589-36.8334-4.2499z" fill="#c4a02e" stroke="#c4a02e"/><path d="m59.6703 18.0581 3.4375-.5016v4.625l-3.4375.5016z" fill="#92929a" stroke="#92929a"/><g fill="#5e5e60" stroke="#5e5e60"><path d="m25.7768 14.4979 37.0459 2.9246-3.6459.492-37.0459-2.9247z"/><path d="m25.9532 38.886 36.7193 5.2907-3.0471 1.5181-36.7193-5.2908z"/><path d="m26.1668 50.3487 36.1982 6.3308-2.7937 2.2273-36.1982-6.3307z"/></g></g></svg>

﻿<?xml version="1.0" encoding="utf-8"?>
<!DOCTYPE svg PUBLIC "-//W3C//DTD SVG 1.1//EN" "http://www.w3.org/Graphics/SVG/1.1/DTD/svg11.dtd">
<svg xmlns="http://www.w3.org/2000/svg" xmlns:xlink="http://www.w3.org/1999/xlink" version="1.1" baseProfile="full" width="88" height="76" viewBox="0 0 88.00 76.00" enable-background="new 0 0 88.00 76.00" xml:space="preserve">
	<path fill="#C0533D" fill-opacity="1" stroke-linejoin="round" stroke="#000000" stroke-opacity="1" d="M 13.4792,2.43747L 74.4792,2.43747C 80.5543,2.43747 85.4792,7.36234 85.4792,13.4375L 85.4792,63.1042C 85.4792,69.1793 80.5543,74.1042 74.4792,74.1042L 13.4792,74.1042C 7.40403,74.1042 2.47916,69.1793 2.47916,63.1042L 2.47916,13.4375C 2.47916,7.36234 7.40403,2.43747 13.4792,2.43747 Z "/>
	<linearGradient id="SVGID_Fill1_" gradientUnits="objectBoundingBox" x1="0.503869" y1="-0.274908" x2="2.05368" y2="-0.274908" gradientTransform="rotate(90.000000 0.503869 -0.274908)">
		<stop offset="0.316279" stop-color="#F0F1EC" stop-opacity="0.592157"/>
		<stop offset="0.800003" stop-color="#FFFFFF" stop-opacity="0"/>
	</linearGradient>
	<path fill="url(#SVGID_Fill1_)" stroke-width="0.2" stroke-linejoin="round" d="M 73.499,4.92154L 15.3879,4.92154C 12.3539,4.92154 8.5797,5.76868 5.8125,9.56688L 5.87839,9.56688C 5.94427,45.1657 24.0444,45.2867 44.4215,45.2867C 64.7985,45.2867 82.1081,44.9423 82.4375,9.48311L 82.4375,9.51103C 80.988,7.44436 79.0773,5.32184 73.499,4.92154 Z "/>
	<linearGradient id="SVGID_Fill2_" gradientUnits="objectBoundingBox" x1="0.940186" y1="0.437275" x2="2.52462" y2="0.437275" gradientTransform="rotate(170.546570 0.940186 0.437275)">
		<stop offset="0.274419" stop-color="#F0F1EC" stop-opacity="0.501961"/>
		<stop offset="0.562791" stop-color="#FFFFFF" stop-opacity="0"/>
	</linearGradient>
	<path fill="url(#SVGID_Fill2_)" stroke-width="0.2" stroke-linejoin="round" d="M 73.2684,4.87499L 56.2809,6.73686C 53.247,6.73686 37.1301,4.94943 34.3629,8.74763L 26.281,20.6636C 30.6395,27.669 45.9588,18.5783 48.3307,16.8282C 71.9617,13.8119 81.8775,44.8957 82.2069,9.43656L 82.2069,9.46448C 80.7574,7.39782 78.8467,5.2753 73.2684,4.87499 Z "/>
	<path fill="#757576" fill-opacity="1" stroke-linejoin="round" stroke="#757576" stroke-opacity="1" d="M 21.9828,15.1185L 59.6078,17.9889L 59.6078,22.7389L 21.9828,19.8685L 21.9828,15.1185 Z "/>
	<radialGradient id="SVGID_Fill3_" cx="42.9268" cy="62.8574" r="22.2178" gradientUnits="userSpaceOnUse">
		<stop offset="0" stop-color="#000000" stop-opacity="0.207843"/>
		<stop offset="1" stop-color="#111111" stop-opacity="0.0980392"/>
	</radialGradient>
	<path fill="url(#SVGID_Fill3_)" stroke-width="0.2" stroke-linejoin="round" d="M 24.4438,56.9413L 64.6446,65.1352L 61.4099,68.7735L 21.209,60.5795L 24.4438,56.9413 Z "/>
	<path fill="#DEB73A" fill-opacity="1" stroke-linejoin="round" stroke="#DEB73A" stroke-opacity="1" d="M 22.4203,28.7458L 59.7292,32.8125L 59.5625,37.8125L 22.4203,33.4958L 22.4203,28.7458 Z "/>
	<path fill="#757576" fill-opacity="1" stroke-linejoin="round" stroke="#757576" stroke-opacity="1" d="M 22.7328,40.5583L 59.8578,45.9291L 59.8578,50.6791L 22.7328,45.3083L 22.7328,40.5583 Z "/>
	<path fill="#757576" fill-opacity="1" stroke-linejoin="round" stroke="#757576" stroke-opacity="1" d="M 23.1703,52.4958L 59.7953,58.9287L 59.7953,63.6787L 23.1703,57.2458L 23.1703,52.4958 Z "/>
	<path fill="#E7C456" fill-opacity="1" stroke-linejoin="round" stroke="#E7C456" stroke-opacity="1" d="M 59.6458,32.8958L 62.8125,31.3125L 62.8125,36.2291L 59.7243,37.717L 59.6458,32.8958 Z "/>
	<path fill="#92929A" fill-opacity="1" stroke-linejoin="round" stroke="#92929A" stroke-opacity="1" d="M 60.0141,45.9624L 63.1078,44.3374L 63.1078,48.9624L 60.0141,50.5874L 60.0141,45.9624 Z "/>
	<path fill="#92929A" fill-opacity="1" stroke-linejoin="round" stroke="#92929A" stroke-opacity="1" d="M 59.7641,58.9624L 62.6078,56.838L 62.6078,61.463L 59.7641,63.5874L 59.7641,58.9624 Z "/>
	<path fill="#C4A02E" fill-opacity="1" stroke-linejoin="round" stroke="#C4A02E" stroke-opacity="1" d="M 25.5583,27.3994L 62.711,30.9952L 59.1042,32.8541L 22.2708,28.6042L 25.5583,27.3994 Z "/>
	<path fill="#92929A" fill-opacity="1" stroke-linejoin="round" stroke="#92929A" stroke-opacity="1" d="M 59.6703,18.0581L 63.1078,17.5565L 63.1078,22.1815L 59.6703,22.6831L 59.6703,18.0581 Z "/>
	<path fill="#5E5E60" fill-opacity="1" stroke-linejoin="round" stroke="#5E5E60" stroke-opacity="1" d="M 25.7768,14.4979L 62.8227,17.4225L 59.1768,17.9145L 22.1309,14.9898L 25.7768,14.4979 Z "/>
	<path fill="#5E5E60" fill-opacity="1" stroke-linejoin="round" stroke="#5E5E60" stroke-opacity="1" d="M 25.9532,38.886L 62.6725,44.1767L 59.6254,45.6948L 22.9061,40.404L 25.9532,38.886 Z "/>
	<path fill="#5E5E60" fill-opacity="1" stroke-linejoin="round" stroke="#5E5E60" stroke-opacity="1" d="M 26.1668,50.3487L 62.365,56.6795L 59.5713,58.9068L 23.3731,52.5761L 26.1668,50.3487 Z "/>
</svg>
